website/static/img/info-icon.svg

<svg fill="none" height="12" viewBox="0 0 12 12" width="12" xmlns="http://www.w3.org/2000/svg"><path d="m6 0c-3.31348 0-6 2.68749-6 6 0 3.31444 2.68652 6 6 6s6-2.68556 6-6c0-3.31251-2.68652-6-6-6zm0 2.66129c.56119 0 1.01613.45494 1.01613 1.01613s-.45494 1.01613-1.01613 1.01613-1.01613-.45494-1.01613-1.01613.45494-1.01613 1.01613-1.01613zm1.35484 6.14516c0 .16033-.12999.29032-.29032.29032h-2.12904c-.16033 0-.29032-.12999-.29032-.29032v-.58064c0-.16033.12999-.29033.29032-.29033h.29033v-1.54838h-.29033c-.16033 0-.29032-.13-.29032-.29033v-.58064c0-.16033.12999-.29032.29032-.29032h1.54839c.16033 0 .29032.12999.29032.29032v2.41935h.29033c.16033 0 .29032.13.29032.29033z" fill="#6b7280"/></svg>

<svg width="12" height="12" viewBox="0 0 12 12" fill="none" xmlns="http://www.w3.org/2000/svg">
<path d="M6 0C2.68652 0 0 2.68749 0 6C0 9.31444 2.68652 12 6 12C9.31348 12 12 9.31444 12 6C12 2.68749 9.31348 0 6 0ZM6 2.66129C6.56119 2.66129 7.01613 3.11623 7.01613 3.67742C7.01613 4.23861 6.56119 4.69355 6 4.69355C5.43881 4.69355 4.98387 4.23861 4.98387 3.67742C4.98387 3.11623 5.43881 2.66129 6 2.66129ZM7.35484 8.80645C7.35484 8.96678 7.22485 9.09677 7.06452 9.09677H4.93548C4.77515 9.09677 4.64516 8.96678 4.64516 8.80645V8.22581C4.64516 8.06548 4.77515 7.93548 4.93548 7.93548H5.22581V6.3871H4.93548C4.77515 6.3871 4.64516 6.2571 4.64516 6.09677V5.51613C4.64516 5.3558 4.77515 5.22581 4.93548 5.22581H6.48387C6.6442 5.22581 6.77419 5.3558 6.77419 5.51613V7.93548H7.06452C7.22485 7.93548 7.35484 8.06548 7.35484 8.22581V8.80645Z" fill="#6B7280"/>
</svg>
